src/lib/packages/icons/src/assets/line/money-bills.svg

<svg xmlns="http://www.w3.org/2000/svg" width="24" height="24" fill="none"><path fill="currentColor" d="M18.733 7.267c-.087-1.942-1.22-3.017-3.233-3.017h-10c-2.096 0-3.25 1.154-3.25 3.25v7c0 2.013 1.075 3.146 3.017 3.233.087 1.942 1.22 3.017 3.233 3.017h10c2.096 0 3.25-1.154 3.25-3.25v-7c0-2.013-1.075-3.146-3.017-3.233ZM3.75 14.5v-7c0-1.259.491-1.75 1.75-1.75h10c1.259 0 1.75.491 1.75 1.75v7c0 1.259-.491 1.75-1.75 1.75h-10c-1.259 0-1.75-.491-1.75-1.75Zm16.5 3c0 1.259-.49 1.75-1.75 1.75h-10c-1.169 0-1.67-.432-1.737-1.5H15.5c2.096 0 3.25-1.154 3.25-3.25V8.763c1.069.067 1.5.567 1.5 1.737v7ZM5.5 12a1 1 0 1 1 0-2 1 1 0 0 1 0 2Zm9-1a1 1 0 1 1 2 0 1 1 0 0 1-2 0Zm-4 3.25A3.254 3.254 0 0 0 13.75 11a3.254 3.254 0 0 0-3.25-3.25A3.254 3.254 0 0 0 7.25 11a3.254 3.254 0 0 0 3.25 3.25Zm0-5c.965 0 1.75.785 1.75 1.75s-.785 1.75-1.75 1.75-1.75-.785-1.75-1.75.785-1.75 1.75-1.75Z"/></svg>

<svg width="24" height="24" viewBox="0 0 24 24" fill="none" xmlns="http://www.w3.org/2000/svg">
<path d="M18.733 7.26703C18.646 5.32503 17.513 4.25 15.5 4.25H5.5C3.404 4.25 2.25 5.404 2.25 7.5V14.5C2.25 16.513 3.32503 17.646 5.26703 17.733C5.35403 19.675 6.487 20.75 8.5 20.75H18.5C20.596 20.75 21.75 19.596 21.75 17.5V10.5C21.75 8.487 20.675 7.35403 18.733 7.26703ZM3.75 14.5V7.5C3.75 6.241 4.241 5.75 5.5 5.75H15.5C16.759 5.75 17.25 6.241 17.25 7.5V14.5C17.25 15.759 16.759 16.25 15.5 16.25H5.5C4.241 16.25 3.75 15.759 3.75 14.5ZM20.25 17.5C20.25 18.759 19.76 19.25 18.5 19.25H8.5C7.331 19.25 6.83 18.818 6.763 17.75H15.5C17.596 17.75 18.75 16.596 18.75 14.5V8.763C19.819 8.83 20.25 9.33 20.25 10.5V17.5ZM5.5 12C4.948 12 4.5 11.552 4.5 11C4.5 10.448 4.948 10 5.5 10C6.052 10 6.5 10.448 6.5 11C6.5 11.552 6.052 12 5.5 12ZM14.5 11C14.5 10.448 14.948 10 15.5 10C16.052 10 16.5 10.448 16.5 11C16.5 11.552 16.052 12 15.5 12C14.948 12 14.5 11.552 14.5 11ZM10.5 14.25C12.292 14.25 13.75 12.792 13.75 11C13.75 9.208 12.292 7.75 10.5 7.75C8.708 7.75 7.25 9.208 7.25 11C7.25 12.792 8.708 14.25 10.5 14.25ZM10.5 9.25C11.465 9.25 12.25 10.035 12.25 11C12.25 11.965 11.465 12.75 10.5 12.75C9.535 12.75 8.75 11.965 8.75 11C8.75 10.035 9.535 9.25 10.5 9.25Z" fill="currentColor"/>
</svg>
